X: 34357
T: Return To The Brandywine
R: waltz
M: 3/4
K: Dmajor
|:"D"F2A|"A7"F2E/D/|"D"F<Ad|f2 (3e/f/e/|"G"d2B|"D"B<AD/E/|"E7"F2E|"A7"E2D/E/|
"D"F2A|"D7"F2E/D/|"G"D<GB|"G#dim"d2c/B/|"D(A)"B<AD/E/|"Bm"F2E/D/|"A7sus4"B,/ D2 E/|1 "D"D>A,D/E/:|2 "D"D>AB/c/||
"G"d2c/B/|"D"B<AD/E/|"F#7"F2 (3E/F/E/|"Bm"D2B/c/|"G"d2c/B/|"D"A<d F|"E7"F2E|"A7"E2 D/E/|
"F#m7(b5)"F2A|"B7"F2E/F/|"Em"G<B c|"Fdim"d2 c/B/|"D(F#)"B<A D/E/|"Bm"F2 E/D/|"A7sus4"B,/ D2 E/|"D"D2 z||

